view/frontend/web/svg/flags/tj.svg

<svg width="24" height="24" viewbox="0 0 20 15" viewBox="0 0 20 15" fill="none" xmlns="http://www.w3.org/2000/svg">
<g clip-path="url(#clip0_270_60799)">
<rect width="20" height="15" fill="white"/>
<path fill-rule="evenodd" clip-rule="evenodd" d="M0 0H20V15H0V0Z" fill="#F7FCFF"/>
<path fill-rule="evenodd" clip-rule="evenodd" d="M0 0V5H20V0H0Z" fill="#C51918"/>
<path fill-rule="evenodd" clip-rule="evenodd" d="M0 10V15H20V10H0Z" fill="#409100"/>
<path fill-rule="evenodd" clip-rule="evenodd" d="M10.0126 5.39362L9.6431 5.65469L9.77345 5.2172L9.41474 4.94105L9.86479 4.93174L10.0126 4.5L10.1604 4.93174L10.6104 4.94105L10.2517 5.2172L10.3821 5.65469L10.0126 5.39362ZM8.45189 5.7766L8.0824 6.03767L8.21275 5.60017L7.85405 5.32403L8.3041 5.31472L8.45189 4.88298L8.59969 5.31472L9.04974 5.32403L8.69103 5.60017L8.82138 6.03767L8.45189 5.7766ZM6.86853 7.18661L7.23802 6.92553L7.60751 7.18661L7.47716 6.74911L7.83587 6.47297L7.38582 6.46366L7.23802 6.03191L7.09022 6.46366L6.64017 6.47297L6.99888 6.74911L6.86853 7.18661ZM6.84785 8.41489L6.47836 8.67597L6.60871 8.23847L6.25 7.96233L6.70005 7.95302L6.84785 7.52128L6.99564 7.95302L7.44569 7.96233L7.08698 8.23847L7.21734 8.67597L6.84785 8.41489ZM12.7645 8.67597L13.134 8.41489L13.5035 8.67597L13.3731 8.23847L13.7318 7.96233L13.2818 7.95302L13.134 7.52128L12.9862 7.95302L12.5361 7.96233L12.8948 8.23847L12.7645 8.67597ZM12.6571 6.92553L12.2876 7.18661L12.418 6.74911L12.0592 6.47297L12.5093 6.46366L12.6571 6.03191L12.8049 6.46366L13.2549 6.47297L12.8962 6.74911L13.0266 7.18661L12.6571 6.92553ZM11.0919 6.03767L11.4614 5.7766L11.8309 6.03767L11.7005 5.60017L12.0592 5.32403L11.6092 5.31472L11.4614 4.88298L11.3136 5.31472L10.8636 5.32403L11.2223 5.60017L11.0919 6.03767ZM7.9171 10.4716L7.80189 10.0614C8.43942 9.88886 9.17134 9.80306 9.99779 9.80306C10.8242 9.80306 11.5562 9.88886 12.1937 10.0614L12.0785 10.4716C11.4809 10.3099 10.7873 10.2286 9.99779 10.2286C9.20828 10.2286 8.51467 10.3099 7.9171 10.4716ZM8.70661 9.81374C8.45225 9.85695 8.24422 9.61107 8.24422 9.61107L8.49658 9.50681C8.48859 9.33186 8.59411 9.2234 8.59411 9.2234C8.67947 9.26271 8.79595 9.47753 8.79595 9.47753H9.02471C9.02471 9.47753 8.96097 9.77054 8.70661 9.81374ZM11.7126 9.65362C11.7126 9.65362 11.5045 9.8995 11.2502 9.85629C10.9958 9.81309 10.9321 9.52008 10.9321 9.52008H11.1608C11.1608 9.52008 11.2773 9.30526 11.3627 9.26596C11.3627 9.26596 11.4682 9.37442 11.4602 9.54936L11.7126 9.65362ZM9.96586 9.73583C9.70796 9.74322 9.53617 9.47078 9.53617 9.47078L9.80058 9.40266C9.81702 9.2283 9.93661 9.13559 9.93661 9.13559C10.0157 9.18639 10.1011 9.41533 10.1011 9.41533L10.3277 9.44717C10.3277 9.44717 10.2238 9.72845 9.96586 9.73583Z" fill="#FFBB00"/>
<path fill-rule="evenodd" clip-rule="evenodd" d="M9.97408 8.56165C9.97408 8.56165 9.68097 9.23246 9.21931 9.28434C8.75765 9.33623 8.52318 8.90283 8.52318 8.90283C8.52318 8.90283 8.49293 9.35352 7.94467 9.52725C7.3964 9.70098 7.1077 9.00687 7.1077 9.00687C7.1077 9.00687 7.39314 9.26219 7.83585 9.15093C8.27855 9.03967 8.4533 8.62879 8.4533 8.62879C8.4533 8.62879 8.78094 9.05715 9.21931 8.84297C9.65768 8.62879 9.9002 8.36703 9.9002 8.11586V7.36471C9.9002 7.36471 9.7871 7.16994 9.59091 7.16994C9.39471 7.16994 9.33996 7.30802 9.33996 7.30802C9.33996 7.30802 9.26338 6.52657 9.969 6.47827L9.96897 6.47638L9.98848 6.47713L10.008 6.47638L10.008 6.47827C10.7136 6.52657 10.637 7.30802 10.637 7.30802C10.637 7.30802 10.5823 7.16994 10.3861 7.16994C10.1899 7.16994 10.0768 7.36471 10.0768 7.36471V8.11586C10.0768 8.36703 10.3193 8.62879 10.7577 8.84297C11.196 9.05715 11.5237 8.62879 11.5237 8.62879C11.5237 8.62879 11.6984 9.03967 12.1411 9.15093C12.5838 9.26219 12.8693 9.00687 12.8693 9.00687C12.8693 9.00687 12.5806 9.70098 12.0323 9.52725C11.484 9.35352 11.4538 8.90283 11.4538 8.90283C11.4538 8.90283 11.2193 9.33623 10.7577 9.28434C10.296 9.23246 10.0029 8.56165 10.0029 8.56165L9.98848 7.67628L9.97408 8.56165ZM9.96759 6.68868C9.64207 6.68868 9.57614 6.96425 9.57614 6.96425C9.86277 6.96425 9.96759 7.08919 9.96759 7.08919C9.96759 7.08919 10.1798 6.96425 10.3935 6.96425C10.3935 6.96425 10.2931 6.68868 9.96759 6.68868Z" fill="#FFBB00"/>
</g>
<defs>
<clipPath id="clip0_270_60799">
<rect width="20" height="15" fill="white"/>
</clipPath>
</defs>
</svg>

<svg width="24" height="24" viewbox="0 0 20 15" fill="none" xmlns="http://www.w3.org/2000/svg">
  <mask id="a" maskUnits="userSpaceOnUse" x="0" y="0" width="20" height="15">
    <path fill="#fff" d="M0 0h20v15H0z"/>
  </mask>
  <g mask="url(#a)" fill-rule="evenodd" clip-rule="evenodd">
    <path d="M0 0h20v15H0V0z" fill="#F7FCFF"/>
    <path d="M0 0v5h20V0H0z" fill="#C51918"/>
    <path d="M0 10v5h20v-5H0z" fill="#409100"/>
    <path d="M10.013 5.394l-.37.26.13-.437-.358-.276.45-.01.148-.431.147.432.45.009-.358.276.13.438-.37-.261zm-1.561.383l-.37.26.13-.437-.358-.276.45-.01.148-.431.148.432.45.009-.359.276.13.438-.37-.261zm-1.583 1.41l.369-.261.37.26-.13-.437.358-.276-.45-.01-.148-.431-.148.432-.45.009.359.276-.13.438zm-.021 1.228l-.37.261.13-.438-.358-.276.45-.009.148-.432.148.432.45.01-.359.275.13.438-.37-.261zm5.917.261l.369-.261.37.261-.13-.438.358-.276-.45-.009-.148-.432-.148.432-.45.01.359.275-.13.438zm-.108-1.75l-.37.26.131-.437-.359-.276.45-.01.148-.431.148.432.45.009-.359.276.13.438-.369-.261zm-1.565-.888l.37-.261.369.26-.13-.437.358-.276-.45-.01-.148-.431-.147.432-.45.009.358.276-.13.438zm-3.175 4.434l-.115-.41c.637-.173 1.37-.259 2.196-.259.826 0 1.558.086 2.196.258l-.116.41c-.597-.161-1.29-.242-2.08-.242s-1.483.08-2.08.243zm.79-.658c-.255.043-.463-.203-.463-.203l.253-.104c-.008-.175.097-.284.097-.284.085.04.202.255.202.255h.229s-.064.293-.318.336zm3.006-.16s-.208.245-.463.202c-.254-.043-.318-.336-.318-.336h.229s.116-.215.202-.254c0 0 .105.108.097.283l.253.105zm-1.747.082c-.258.007-.43-.265-.43-.265l.265-.068a.4.4 0 01.136-.267c.079.05.164.28.164.28l.227.031s-.104.281-.362.289z" fill="#FB0"/>
    <path d="M9.974 8.562s-.293.67-.755.722c-.461.052-.696-.381-.696-.381s-.03.45-.578.624c-.549.174-.837-.52-.837-.52s.285.255.728.144c.443-.111.617-.522.617-.522s.328.428.766.214c.439-.214.681-.476.681-.727v-.751s-.113-.195-.31-.195c-.195 0-.25.138-.25.138s-.077-.781.629-.83v-.002l.02.001h.019v.001c.706.049.629.83.629.83s-.055-.138-.25-.138c-.197 0-.31.195-.31.195v.75c0 .252.242.514.68.728.439.214.767-.214.767-.214s.174.41.617.522c.443.111.728-.144.728-.144s-.288.694-.837.52c-.548-.173-.578-.624-.578-.624s-.235.433-.696.381c-.462-.052-.755-.722-.755-.722l-.015-.886-.014.886zm-.006-1.873a.385.385 0 00-.392.275c.287 0 .392.125.392.125s.212-.125.425-.125c0 0-.1-.275-.425-.275z" fill="#FB0"/>
  </g>
</svg>
